X:1
T:The Heavenly March
T:Bb Major        William Walker, 1840
T:Transcribed from Southern Harmony, 1845.
T:Samuel Stennett, 1778 (stanzas) Anonymous (Chorus)                        86. 86. (C. M.)
%%score [ 1 2 3 ]
L:1/8
Q:1/4=120
M:4/4
K:Bb
V:1 treble nm="Tr." snm="Tr."
V:2 treble-8 nm="T." snm="T."
V:3 bass nm="B." snm="B."
V:1
"_1. On       Jordan's      stor – my     banks  I  stand,  And  cast  a       wishful  eye, To Canaan's fair and happy land, Where my possessions lie." (B3 d) | %1
 f2 f2 fg f2 | d3 c df d2 | f2 f2 d2 g2 | f4 c4 | e2 e2 B2 c2 | d3 f g2 f2 | f2 B2 d2 c2 | %8
 B4"^Chorus" (B3 d) | f2 f2 f2 dc | d3 c df c d | f2 f2 d2 g2 | f4 c4 | d2 d2 B2 c2 | %14
 (d2 f2) g2 f2 | f2 B2 d2 c2 | B4 (B3 c) | G2 G2 GF G2 | (B3 cdf) d2 | f2 f2 d2 g2 | f4 c4 | %21
 d2 d2 B2 c2 | (d2 f2) g2 f2 | f2 B2 d2 c2 | B8 |] %25
V:2
"_2.   O       the  trans – por – ting   rapturous  scene,  That   rises       to   my sight! Sweet fields arrayed in living green, And rivers of delight!     To       see  the      righteous" (F3 G) | %1
 B2 B2 Bc dc | B3 A GF FG | B2 B2 Bc d2 | f4 f4 | b2 f2 g2 f2 | d3 B d2 c2 | B2 G2 F2 GA | %8
 B4 (F3 G) | B2 B2 Bc dc | %10
"_marching home, And the angels bid them come, And Jesus stands a–wai–ting,  To  welcome  travelers home,   To   welcome  travelers    home. _______ To  welcome  travelers" B3 A GF F G | %11
 B2 B2 Bc d2 | f4 f4 | b2 f2 g2 f2 | (d2 cB) d2 c2 | B2 G2 F2 GA | B4 (F3 G) | B2 B2 Bc dc | %18
 (B3 AGF) FG | B2 B2 Bc d2 | %20
"_home. And Jesus stands a – wai – ting,  To   welcome  travelers  home." f4 f4 | b2 f2 g2 f2 | %22
 (d2 cB) d2 c2 | B2 G2 F2 GA | B8 |] %25
V:3
"_3.  Filled  with  de – light,   my     raptured   soul    Can here no longer stay:  Though Jordan's waves around me roll, Fearless I'd launch a–way." (F,3 G,) | %1
 B,2 DC B,2 A,G, | D,3 C, D,F, E,2 | F,2 F,D, [B,,G,]2 [B,,G,]2 | F,4 F,4 | B,2 B,2 B,2 F,2 | %6
 G,3 F, D,2 F,2 | [B,,B,]2 [B,,G,]2 D,E, F,2 | B,,4 (F,3 G,) | B,2 DC B,2 G,F, | %10
 D,3 C, D,F, F, G, | F,2 F,D, [B,,G,]2 [B,,G,]2 | F,4 F,4 | B,2 B,2 B,2 F,2 | (G,2 F,2) D,2 F,2 | %15
 [B,,B,]2 [B,,G,]2 D,E, F,2 | B,,4 (F,3 G,) | B,2 B,2 F,2 D,2 | (B,,3 C,D,F,) G,2 | %19
 F,2 F,D, G,2 G,2 | F,4 F,4 | B,2 B,2 B,2 F,2 | (G,2 F,2) D,2 F,2 | [B,,B,]2 [B,,G,]2 D,E, F,2 | %24
 B,,8 |] %25

